X:1
T:Title
%%score { 1 | ( 2 3 ) }
L:1/8
M:3/4
K:G
V:1 treble nm="Grand Piano"
V:2 bass 
V:3 bass 
V:1
 z2 z2 D2 | [DB]3 [CA] [B,G]2 | B2 A2 G2 | A3 G E2 | [CE]2 [B,D]2 D2 | G3 A B2 | B2 c2 d2 | %7
 e2 d2 B2 | [DFA]4 D2 | B3 A G2 | B2 A2 G2 | A3 G E2 | [CE]2 [B,D]2 D2 | B3 c d2 | %14
 E2 [CEc]2 [EB]2 | [EA]2 [DG]2 [CF]2 |[M:2/4] [B,G]4 |[M:1/4] Bc |[M:3/4] d3 c B2 | B2 A2 B2 | %20
 [Ac]3 [GB] [FA]2 | [FA]2 [EG]2 [FA]2 | B3 c d2 | e2 d2 B2 | G2 c2 B2 | [FA]4 D2 | %26
 [DB]3 [CA] [B,G]2 | B2 A2 G2 | A3 G E2 | [CE]2 [B,D]2 D2 | B3 c d2 | E2 [CEc]2 [EB]2 | %32
 [EA]2 [DG]2 [CF]2 |[M:2/4] [B,G]4 |] %34
V:2
 z2 z2 D,2 | [G,,G,]3 [G,,G,] [G,,G,]2 | [G,D]2 [G,C]2 [G,B,]2 | [C,E,C]3 [C,E,C] [C,G,C]2 | %4
 [G,,G,]2 [G,,G,]2 [G,B,]2 | [G,B,D]3 [G,CD] [G,DG]2 | [G,DG]2 [G,A,G]2 [G,B,G]2 | %7
 [G,CG]2 [G,B,G]2 [G,DG]2 | D,4 D,2 | [G,D]3 [G,C] [G,B,]2 | [G,D]2 [G,C]2 [G,B,]2 | %11
 [C,E,C]3 [C,E,C] [C,G,C]2 | [G,,G,]2 [G,,G,]2 [G,B,]2 | [G,D]3 [G,A,D] [G,B,D]2 | %14
 [C,C]2 A,,2 [B,,^G,]2 | [C,A,]2 [D,B,]2 [D,A,]2 |[M:2/4] [G,,G,]4 |[M:1/4] [G,D]2 | %18
[M:3/4][K:treble] [G,B,G]3 [G,EG] [G,DG]2 | [G,DG]2 [G,DF]2 [G,DG]2 | [D,D]3 [D,D] [D,D]2 | %21
 [D,D]2 [D,D]2 [D,D]2 | [G,DG]3 [G,A,G] [G,B,G]2 | [G,CG]2 [G,B,G]2 [G,DG]2 | %24
 [B,D]2 [A,DF]2 [G,DG]2 | [D,D]4 [D,F,]2 | [G,,G,]3 [G,,G,] [G,,G,]2 | [G,D]2 [G,C]2 [G,B,]2 | %28
 [C,E,C]3 [C,E,C] [C,G,C]2 | [G,,G,]2 [G,,G,]2 [G,B,]2 | [G,D]3 [G,A,D] [G,B,D]2 | %31
 [C,C]2 A,,2 [B,,^G,]2 | [C,A,]2 [D,B,]2 [D,A,]2 |[M:2/4] [G,,G,]4 |] %34
V:3
 x6 | x6 | x6 | x6 | x6 | x6 | x6 | x6 | x6 | x6 | x6 | x6 | x6 | x6 | x6 | x6 |[M:2/4] x4 | %17
[M:1/4] z A, |[M:3/4][K:treble] x6 | x6 | x6 | x6 | x6 | x6 | x6 | x6 | x6 | x6 | x6 | x6 | x6 | %31
 x6 | x6 |[M:2/4] x4 |] %34

